X: 4114
M: C|
L: 1/8
K: G
|:\
(BG)GG (DG)GG |
(BG)GB (de)dc |\
[1 (BG)GG (DG)GG | FGAB cedc :|\
[2 Bdgf edcB | AGFE DcBA |]


